;FLAVOR:Marlin
;TIME:6085
;Filament used: 2.8368m
;Layer height: 0.05
;MINX:-74.449
;MINY:-65.489
;MINZ:0.3
;MAXX:74.451
;MAXY:65.482
;MAXZ:1.25
;Generated with Cura_SteamEngine 5.2.2
M104 S200
M105
M109 S200
M82 ;absolute extrusion mode
G28 ;Home
G92 E0
G1 F200 E3
G92 E0
G92 E0
G92 E0
G1 F1500 E-6.5
;LAYER_COUNT:20
;LAYER:0
M107
G0 F3600 X31.066 Y18.911 Z0.3
;TYPE:SKIRT
G1 F1500 E0
G1 F1800 X30.904 Y19.501 E0.04579
G1 X30.615 Y20.252 E0.10601
G1 X30.226 Y21.018 E0.1703
G1 X6.915 Y61.437 E3.66207
G1 X6.479 Y62.113 E3.72227
G1 X5.977 Y62.743 E3.78255
G1 X5.416 Y63.32 E3.84277
G1 X4.801 Y63.838 E3.90295
G1 X4.137 Y64.292 E3.96314
G1 X3.431 Y64.679 E4.02339
G1 X2.69 Y64.994 E4.08365
G1 X1.922 Y65.233 E4.14384
G1 X1.134 Y65.395 E4.20404
G1 X0.333 Y65.478 E4.26431
G1 X-.472 Y65.482 E4.32455
G1 X-1.273 Y65.405 E4.38477
G1 X-2.062 Y65.249 E4.44496
G1 X-2.832 Y65.016 E4.50516
G1 X-3.576 Y64.707 E4.56545
G1 X-4.285 Y64.327 E4.62565
G1 X-4.952 Y63.877 E4.68586
G1 X-5.572 Y63.364 E4.74608
G1 X-6.138 Y62.792 E4.8063
G1 X-6.644 Y62.166 E4.86654
G1 X-7.1 Y61.468 E4.92894
G1 X-9.007 Y58.196 E5.21235
G1 X-14.47 Y48.775 E6.02733
G1 X-14.839 Y48.06 E6.08754
G1 X-15.135 Y47.312 E6.14774
G1 X-15.355 Y46.537 E6.20803
G1 X-15.379 Y46.406 E6.218
G1 X-16.052 Y45.717 E6.29008
G1 X-16.554 Y45.089 E6.35024
G1 X-17.003 Y44.396 E6.41204
G1 X-45.349 Y-4.752 E10.65793
G1 X-47.666 Y-8.756 E11.00412
G1 X-48.034 Y-9.472 E11.06436
G1 X-48.33 Y-10.22 E11.12456
G1 X-48.549 Y-10.995 E11.18483
G1 X-48.587 Y-11.21 E11.20117
G1 X-49.171 Y-11.801 E11.26335
G1 X-49.674 Y-12.429 E11.32356
G1 X-50.12 Y-13.117 E11.38492
G1 X-73.362 Y-53.262 E14.85635
G1 X-73.73 Y-53.977 E14.91653
G1 X-74.025 Y-54.726 E14.97677
G1 X-74.245 Y-55.5 E15.03699
G1 X-74.387 Y-56.292 E15.09721
G1 X-74.449 Y-57.094 E15.1574
G1 X-74.431 Y-57.899 E15.21766
G1 X-74.334 Y-58.698 E15.27789
G1 X-74.158 Y-59.483 E15.3381
G1 X-73.905 Y-60.247 E15.39832
G1 X-73.577 Y-60.982 E15.45856
G1 X-73.178 Y-61.681 E15.51879
G1 X-72.712 Y-62.337 E15.57901
G1 X-72.182 Y-62.943 E15.63925
G1 X-71.596 Y-63.494 E15.69945
G1 X-70.957 Y-63.984 E15.75971
G1 X-70.273 Y-64.408 E15.81993
G1 X-69.551 Y-64.762 E15.88011
G1 X-68.796 Y-65.042 E15.94037
G1 X-68.018 Y-65.247 E16.00058
G1 X-67.223 Y-65.373 E16.06082
G1 X-66.353 Y-65.42 E16.12602
G1 X-51.698 Y-65.421 E17.22273
G1 X-50.894 Y-65.381 E17.28297
G1 X-50.098 Y-65.262 E17.3432
G1 X-49.221 Y-65.039 E17.41092
G1 X-48.998 Y-65.122 E17.42873
G1 X-48.218 Y-65.323 E17.48901
G1 X-47.423 Y-65.446 E17.54921
G1 X-46.586 Y-65.489 E17.61193
G1 X14.757 Y-65.489 E22.20255
G1 X15.561 Y-65.449 E22.26279
G1 X16.357 Y-65.329 E22.32303
G1 X17.137 Y-65.132 E22.38324
G1 X17.42 Y-65.029 E22.40578
G1 X18.323 Y-65.259 E22.47551
G1 X19.119 Y-65.38 E22.53576
G1 X19.936 Y-65.421 E22.59698
G1 X66.353 Y-65.421 E26.07061
G1 X67.157 Y-65.381 E26.13085
G1 X67.953 Y-65.261 E26.19109
G1 X68.733 Y-65.064 E26.2513
G1 X69.489 Y-64.789 E26.3115
G1 X70.215 Y-64.441 E26.37175
G1 X70.902 Y-64.023 E26.43193
G1 X71.545 Y-63.538 E26.4922
G1 X72.136 Y-62.993 E26.55237
G1 X72.67 Y-62.391 E26.61259
G1 X73.142 Y-61.739 E26.67282
G1 X73.547 Y-61.043 E26.73309
G1 X73.881 Y-60.311 E26.7933
G1 X74.14 Y-59.549 E26.85353
G1 X74.323 Y-58.766 E26.9137
G1 X74.427 Y-57.968 E26.97392
G1 X74.451 Y-57.163 E27.03419
G1 X74.396 Y-56.361 E27.09435
G1 X74.261 Y-55.567 E27.15462
G1 X74.048 Y-54.791 E27.21484
G1 X73.759 Y-54.04 E27.27506
G1 X73.375 Y-53.283 E27.33859
G1 X69.703 Y-46.899 E27.88973
G1 X66.143 Y-40.731 E28.42268
G1 X65.707 Y-40.055 E28.48288
G1 X65.206 Y-39.425 E28.54311
G1 X64.646 Y-38.852 E28.60307
G1 X64.438 Y-38.092 E28.66204
G1 X64.149 Y-37.341 E28.72226
G1 X63.76 Y-36.577 E28.78641
G1 X51.219 Y-14.821 E30.66566
G1 X33.086 Y16.591 E33.37994
G1 X32.65 Y17.267 E33.44014
G1 X32.148 Y17.896 E33.50037
G1 X31.587 Y18.473 E33.56059
G1 X31.066 Y18.911 E33.61153
G0 F3600 X30.528 Y18.572
G1 F1800 X30.399 Y19.104 E33.65249
G1 X30.141 Y19.834 E33.71044
G1 X29.706 Y20.718 E33.78417
G1 X6.395 Y61.137 E37.27593
G1 X5.974 Y61.787 E37.33389
G1 X5.488 Y62.39 E37.39185
G1 X4.943 Y62.94 E37.44979
G1 X4.344 Y63.43 E37.50771
G1 X3.697 Y63.856 E37.56568
G1 X3.01 Y64.214 E37.62365
G1 X2.29 Y64.498 E37.68157
G1 X1.544 Y64.707 E37.73955
G1 X0.781 Y64.838 E37.79748
G1 X0.009 Y64.889 E37.85538
G1 X-.765 Y64.861 E37.91334
G1 X-1.532 Y64.752 E37.97132
G1 X-2.283 Y64.566 E38.02922
G1 X-3.012 Y64.303 E38.08721
G1 X-3.709 Y63.966 E38.14515
G1 X-4.368 Y63.559 E38.20311
G1 X-4.981 Y63.086 E38.26106
G1 X-5.542 Y62.553 E38.31897
G1 X-6.046 Y61.964 E38.37698
G1 X-6.582 Y61.166 E38.44892
G1 X-8.488 Y57.895 E38.73223
G1 X-13.951 Y48.474 E39.54721
G1 X-14.304 Y47.785 E39.60515
G1 X-14.585 Y47.063 E39.66313
G1 X-14.789 Y46.317 E39.721
G1 X-14.828 Y46.085 E39.73861
G1 X-15.455 Y45.481 E39.80376
G1 X-15.955 Y44.89 E39.86169
G1 X-16.483 Y44.096 E39.93305
G1 X-44.829 Y-5.052 E44.17894
G1 X-47.147 Y-9.057 E44.52523
G1 X-47.5 Y-9.746 E44.58317
G1 X-47.78 Y-10.468 E44.64112
G1 X-47.984 Y-11.215 E44.69907
G1 X-48.034 Y-11.519 E44.72213
G1 X-48.574 Y-12.037 E44.77812
G1 X-49.075 Y-12.628 E44.8361
G1 X-49.601 Y-13.417 E44.90707
G1 X-72.843 Y-53.562 E48.3785
G1 X-73.196 Y-54.251 E48.43643
G1 X-73.475 Y-54.973 E48.49436
G1 X-73.679 Y-55.72 E48.55231
G1 X-73.805 Y-56.484 E48.61025
G1 X-73.852 Y-57.257 E48.66821
G1 X-73.818 Y-58.031 E48.72619
G1 X-73.705 Y-58.797 E48.78413
G1 X-73.514 Y-59.547 E48.84205
G1 X-73.246 Y-60.274 E48.90003
G1 X-72.904 Y-60.969 E48.958
G1 X-72.493 Y-61.625 E49.01593
G1 X-72.017 Y-62.235 E49.07383
G1 X-71.48 Y-62.793 E49.13179
G1 X-70.888 Y-63.293 E49.18978
G1 X-70.248 Y-63.729 E49.24773
G1 X-69.566 Y-64.096 E49.30569
G1 X-68.851 Y-64.392 E49.3636
G1 X-68.108 Y-64.611 E49.42157
G1 X-67.347 Y-64.754 E49.47951
G1 X-66.353 Y-64.82 E49.55406
G1 X-51.698 Y-64.821 E50.65078
G1 X-50.924 Y-64.781 E50.70878
G1 X-50.159 Y-64.662 E50.76671
G1 X-49.41 Y-64.464 E50.82469
G1 X-49.235 Y-64.398 E50.83869
G1 X-49.055 Y-64.471 E50.85322
G1 X-48.311 Y-64.688 E50.91122
G1 X-47.55 Y-64.827 E50.96911
G1 X-46.586 Y-64.889 E51.0414
G1 X14.757 Y-64.889 E55.63202
G1 X15.53 Y-64.849 E55.68995
G1 X16.295 Y-64.73 E55.74789
G1 X17.044 Y-64.532 E55.80586
G1 X17.419 Y-64.39 E55.83587
G1 X18.229 Y-64.624 E55.89897
G1 X18.991 Y-64.761 E55.95691
G1 X19.936 Y-64.821 E56.02777
G1 X66.353 Y-64.821 E59.5014
G1 X67.126 Y-64.781 E59.55932
G1 X67.891 Y-64.662 E59.61726
G1 X68.64 Y-64.464 E59.67524
G1 X69.364 Y-64.19 E59.73317
G1 X70.057 Y-63.843 E59.79117
G1 X70.709 Y-63.426 E59.84909
G1 X71.315 Y-62.944 E59.90703
G1 X71.869 Y-62.403 E59.96498
G1 X72.363 Y-61.807 E60.02291
G1 X72.794 Y-61.163 E60.0809
G1 X73.156 Y-60.479 E60.13882
G1 X73.445 Y-59.761 E60.19674
G1 X73.659 Y-59.016 E60.25474
G1 X73.795 Y-58.254 E60.31267
G1 X73.851 Y-57.482 E60.37059
G1 X73.828 Y-56.708 E60.42854
G1 X73.725 Y-55.94 E60.48653
G1 X73.543 Y-55.188 E60.54443
G1 X73.285 Y-54.458 E60.60237
G1 X72.855 Y-53.582 E60.6754
G1 X69.184 Y-47.199 E61.22644
G1 X65.624 Y-41.031 E61.75939
G1 X65.203 Y-40.381 E61.81734
G1 X64.717 Y-39.778 E61.8753
G1 X64.094 Y-39.151 E61.94145
G1 X63.933 Y-38.489 E61.99243
G1 X63.675 Y-37.759 E62.05037
G1 X63.241 Y-36.876 E62.124
G1 X50.699 Y-15.121 E64.00322
G1 X32.566 Y16.291 E66.71751
G1 X32.145 Y16.94 E66.7754
G1 X31.659 Y17.543 E66.83336
G1 X31.114 Y18.093 E66.8913
G1 X30.528 Y18.572 E66.94794
G0 F3600 X29.984 Y18.231
G1 F1800 X29.877 Y18.744 E66.98716
G1 X29.648 Y19.451 E67.04277
G1 X29.186 Y20.418 E67.12297
G1 X5.875 Y60.837 E70.61474
G1 X5.47 Y61.46 E70.67035
G1 X5 Y62.035 E70.72592
G1 X4.472 Y62.557 E70.78149
G1 X3.89 Y63.018 E70.83705
G1 X3.262 Y63.415 E70.89265
G1 X2.595 Y63.741 E70.94821
G1 X1.896 Y63.994 E71.00384
G1 X1.175 Y64.171 E71.0594
G1 X0.439 Y64.269 E71.11496
G1 X-.304 Y64.287 E71.17058
G1 X-1.044 Y64.225 E71.22615
G1 X-1.773 Y64.085 E71.28171
G1 X-2.483 Y63.866 E71.33731
G1 X-3.165 Y63.573 E71.39286
G1 X-3.812 Y63.208 E71.44845
G1 X-4.416 Y62.775 E71.50406
G1 X-4.97 Y62.28 E71.55966
G1 X-5.467 Y61.729 E71.61519
G1 X-6.064 Y60.864 E71.69384
G1 X-7.969 Y57.594 E71.97705
G1 X-13.432 Y48.173 E72.79204
G1 X-13.769 Y47.512 E72.84756
G1 X-14.034 Y46.818 E72.90315
G1 X-14.222 Y46.099 E72.95877
G1 X-14.272 Y45.762 E72.98426
G1 X-14.881 Y45.212 E73.04567
G1 X-15.375 Y44.658 E73.10122
G1 X-15.963 Y43.796 E73.17931
G1 X-44.304 Y-5.342 E77.42436
G1 X-46.628 Y-9.357 E77.77153
G1 X-46.965 Y-10.019 E77.82712
G1 X-47.229 Y-10.714 E77.88276
G1 X-47.416 Y-11.432 E77.93828
G1 X-47.476 Y-11.835 E77.96877
G1 X-48 Y-12.307 E78.02155
G1 X-48.495 Y-12.861 E78.07714
G1 X-49.081 Y-13.718 E78.15484
G1 X-72.323 Y-53.863 E81.62627
G1 X-72.66 Y-54.525 E81.68186
G1 X-72.924 Y-55.219 E81.73743
G1 X-73.112 Y-55.937 E81.79297
G1 X-73.222 Y-56.672 E81.84859
G1 X-73.251 Y-57.414 E81.90416
G1 X-73.201 Y-58.155 E81.95974
G1 X-73.072 Y-58.887 E82.01536
G1 X-72.865 Y-59.6 E82.07092
G1 X-72.582 Y-60.286 E82.12645
G1 X-72.227 Y-60.939 E82.18208
G1 X-71.804 Y-61.549 E82.23763
G1 X-71.318 Y-62.111 E82.29323
G1 X-70.774 Y-62.617 E82.34883
G1 X-70.179 Y-63.061 E82.40439
G1 X-69.54 Y-63.439 E82.45995
G1 X-68.864 Y-63.747 E82.51554
G1 X-68.158 Y-63.979 E82.57115
G1 X-67.432 Y-64.135 E82.62672
G1 X-66.352 Y-64.22 E82.70779
G1 X-51.697 Y-64.221 E83.80451
G1 X-50.956 Y-64.181 E83.86004
G1 X-50.223 Y-64.062 E83.91561
G1 X-49.507 Y-63.864 E83.97121
G1 X-49.23 Y-63.754 E83.99351
G1 X-49.07 Y-63.826 E84.00664
G1 X-48.364 Y-64.056 E84.06221
G1 X-47.637 Y-64.208 E84.11779
G1 X-46.586 Y-64.289 E84.19667
G1 X14.757 Y-64.289 E88.7873
G1 X15.499 Y-64.249 E88.8429
G1 X16.232 Y-64.13 E88.89848
G1 X16.948 Y-63.932 E88.95407
G1 X17.415 Y-63.747 E88.99166
G1 X18.174 Y-63.992 E89.05135
G1 X18.901 Y-64.143 E89.10691
G1 X19.936 Y-64.221 E89.18459
G1 X66.353 Y-64.221 E92.65822
G1 X67.095 Y-64.181 E92.71382
G1 X67.828 Y-64.062 E92.7694
G1 X68.544 Y-63.864 E92.82499
G1 X69.234 Y-63.591 E92.88052
G1 X69.891 Y-63.245 E92.93609
G1 X70.508 Y-62.83 E92.99174
G1 X71.076 Y-62.352 E93.04729
G1 X71.589 Y-61.815 E93.10287
G1 X72.042 Y-61.226 E93.15847
G1 X72.428 Y-60.592 E93.21402
G1 X72.745 Y-59.92 E93.26963
G1 X72.987 Y-59.218 E93.32519
G1 X73.153 Y-58.494 E93.38078
G1 X73.239 Y-57.756 E93.43638
G1 X73.246 Y-57.014 E93.49191
G1 X73.173 Y-56.275 E93.54749
G1 X73.021 Y-55.548 E93.60307
G1 X72.792 Y-54.841 E93.65868
G1 X72.334 Y-53.881 E93.73828
G1 X68.664 Y-47.499 E94.28922
G1 X65.104 Y-41.331 E94.82217
G1 X64.699 Y-40.708 E94.87778
G1 X64.229 Y-40.133 E94.93335
G1 X63.7 Y-39.612 E94.98892
G1 X63.545 Y-39.489 E95.00372
G1 X63.411 Y-38.849 E95.05266
G1 X63.182 Y-38.142 E95.10827
G1 X62.721 Y-37.176 E95.18837
G1 X50.18 Y-15.421 E97.06755
G1 X32.047 Y15.991 E99.78184
G1 X31.641 Y16.613 E99.83742
G1 X31.171 Y17.188 E99.893
G1 X30.642 Y17.709 E99.94856
G1 X29.984 Y18.231 E100.01142
G0 F3600 X29.61 Y17.753
G1 F1800 X29.441 Y17.854 E100.02615
G1 X29.34 Y18.422 E100.06933
G1 X29.137 Y19.102 E100.12243
G1 X28.819 Y19.852 E100.1834
G1 X5.355 Y60.537 E103.69813
G1 X4.967 Y61.131 E103.75122
G1 X4.514 Y61.678 E103.80437
G1 X4.002 Y62.17 E103.85751
G1 X3.439 Y62.601 E103.91057
G1 X2.83 Y62.966 E103.96371
G1 X2.185 Y63.26 E104.01675
G1 X1.51 Y63.48 E104.06988
G1 X0.815 Y63.623 E104.12298
G1 X0.108 Y63.686 E104.1761
G1 X-.601 Y63.67 E104.22917
G1 X-1.305 Y63.574 E104.28234
G1 X-1.992 Y63.4 E104.33538
G1 X-2.656 Y63.149 E104.3885
G1 X-3.288 Y62.825 E104.44165
G1 X-3.879 Y62.432 E104.49476
G1 X-4.422 Y61.976 E104.54783
G1 X-4.91 Y61.461 E104.60092
G1 X-5.397 Y60.815 E104.66146
G1 X-7.45 Y57.293 E104.96654
G1 X-12.913 Y47.872 E105.78153
G1 X-13.234 Y47.239 E105.83464
G1 X-13.481 Y46.574 E105.88773
G1 X-13.653 Y45.886 E105.9408
G1 X-13.712 Y45.437 E105.97469
G1 X-14.331 Y44.911 E106.03548
G1 X-14.817 Y44.393 E106.08863
G1 X-15.3 Y43.744 E106.14917
G1 X-43.789 Y-5.651 E110.41642
G1 X-46.108 Y-9.658 E110.76288
G1 X-46.429 Y-10.291 E110.816
G1 X-46.676 Y-10.956 E110.86908
G1 X-46.847 Y-11.645 E110.92221
G1 X-46.913 Y-12.153 E110.96055
G1 X-47.451 Y-12.609 E111.01332
G1 X-47.937 Y-13.126 E111.06642
G1 X-48.42 Y-13.772 E111.12679
G1 X-71.804 Y-54.163 E114.61947
G1 X-72.125 Y-54.797 E114.67265
G1 X-72.372 Y-55.462 E114.72574
G1 X-72.543 Y-56.151 E114.77887
G1 X-72.635 Y-56.854 E114.83193
G1 X-72.647 Y-57.564 E114.88507
G1 X-72.58 Y-58.27 E114.93814
G1 X-72.434 Y-58.965 E114.99128
G1 X-72.21 Y-59.638 E115.04436
G1 X-71.912 Y-60.282 E115.09747
G1 X-71.544 Y-60.889 E115.15059
G1 X-71.109 Y-61.45 E115.20371
G1 X-70.615 Y-61.959 E115.25679
G1 X-70.066 Y-62.409 E115.30992
G1 X-69.47 Y-62.794 E115.36302
G1 X-68.835 Y-63.11 E115.41609
G1 X-68.168 Y-63.353 E115.46922
G1 X-67.478 Y-63.519 E115.52233
G1 X-66.661 Y-63.62 E115.58393
G1 X-51.697 Y-63.621 E116.70377
G1 X-50.989 Y-63.581 E116.75684
G1 X-50.289 Y-63.462 E116.80997
G1 X-49.608 Y-63.264 E116.86305
G1 X-49.22 Y-63.103 E116.89448
G1 X-49.044 Y-63.19 E116.90918
G1 X-48.376 Y-63.429 E116.96227
G1 X-47.686 Y-63.592 E117.01533
G1 X-46.881 Y-63.689 E117.07601
G1 X14.757 Y-63.689 E121.6887
G1 X15.466 Y-63.649 E121.74185
G1 X16.165 Y-63.53 E121.79491
G1 X16.847 Y-63.332 E121.84805
G1 X17.408 Y-63.098 E121.89354
G1 X18.161 Y-63.366 E121.95336
G1 X18.852 Y-63.527 E122.00645
G1 X19.65 Y-63.621 E122.06658
G1 X66.353 Y-63.621 E125.56162
G1 X67.062 Y-63.581 E125.61476
G1 X67.761 Y-63.462 E125.66782
G1 X68.443 Y-63.264 E125.72097
G1 X69.098 Y-62.992 E125.77404
G1 X69.718 Y-62.647 E125.82714
G1 X70.296 Y-62.235 E125.88026
G1 X70.823 Y-61.76 E125.93335
G1 X71.294 Y-61.229 E125.98647
G1 X71.702 Y-60.649 E126.03954
G1 X72.043 Y-60.026 E126.09269
G1 X72.311 Y-59.369 E126.14579
G1 X72.503 Y-58.686 E126.19888
G1 X72.618 Y-57.985 E126.25204
G1 X72.653 Y-57.277 E126.30509
G1 X72.608 Y-56.568 E126.35826
G1 X72.484 Y-55.87 E126.41131
G1 X72.281 Y-55.19 E126.46442
G1 X71.963 Y-54.439 E126.52545
G1 X68.144 Y-47.799 E127.09868
G1 X64.584 Y-41.631 E127.63163
G1 X64.196 Y-41.037 E127.68473
G1 X63.742 Y-40.491 E127.73787
G1 X63.231 Y-39.999 E127.79095
G1 X62.988 Y-39.813 E127.81385
G1 X62.874 Y-39.171 E127.86265
G1 X62.671 Y-38.491 E127.91575
G1 X62.352 Y-37.738 E127.97695
G1 X49.66 Y-15.721 E129.87876
G1 X31.527 Y15.691 E132.59305
G1 X31.138 Y16.284 E132.64612
G1 X30.685 Y16.83 E132.69921
G1 X30.174 Y17.322 E132.7523
G1 X29.61 Y17.753 E132.80542
G0 F3600 X29.163 Y17.33
G1 F1800 X28.885 Y17.487 E132.82931
G1 X28.788 Y18.14 E132.87871
G1 X28.611 Y18.791 E132.9292
G1 X28.309 Y19.538 E132.9895
G1 X4.836 Y60.238 E136.50554
G1 X4.464 Y60.801 E136.55604
G1 X4.029 Y61.317 E136.60655
G1 X3.536 Y61.778 E136.65706
G1 X2.992 Y62.177 E136.70754
G1 X2.404 Y62.51 E136.75811
G1 X1.781 Y62.77 E136.80863
G1 X1.132 Y62.955 E136.85913
G1 X0.466 Y63.062 E136.90961
G1 X-.209 Y63.089 E136.96017
G1 X-.882 Y63.036 E137.01069
G1 X-1.544 Y62.905 E137.06119
G1 X-2.185 Y62.696 E137.11165
G1 X-2.798 Y62.412 E137.1622
G1 X-3.373 Y62.058 E137.21273
G1 X-3.902 Y61.639 E137.26324
G1 X-4.377 Y61.16 E137.31372
G1 X-4.87 Y60.53 E137.37358
G1 X-6.931 Y56.992 E137.68
G1 X-12.394 Y47.571 E138.49498
G1 X-12.697 Y46.968 E138.54548
G1 X-12.927 Y46.334 E138.59596
G1 X-13.081 Y45.677 E138.64646
G1 X-13.146 Y45.084 E138.6911
G1 X-13.283 Y44.999 E138.70316
G1 X-13.809 Y44.577 E138.75363
G1 X-14.282 Y44.095 E138.80417
G1 X-14.77 Y43.464 E138.86386
G1 X-43.269 Y-5.951 E143.13278
G1 X-45.589 Y-9.959 E143.47934
G1 X-45.892 Y-10.562 E143.52985
G1 X-46.122 Y-11.196 E143.58032
G1 X-46.275 Y-11.854 E143.63087
G1 X-46.344 Y-12.475 E143.67763
G1 X-46.929 Y-12.944 E143.73374
G1 X-47.403 Y-13.425 E143.78428
G1 X-47.89 Y-14.055 E143.84387
G1 X-71.285 Y-54.464 E147.33814
G1 X-71.588 Y-55.067 E147.38864
G1 X-71.818 Y-55.702 E147.43918
G1 X-71.97 Y-56.359 E147.48964
